dist/img/sprites/icon_5.svg

<svg width="49" height="46" viewBox="0 0 49 46" fill="none" xmlns="http://www.w3.org/2000/svg">
<path d="M8.60664 9.28713C7.59664 10.2991 5.95264 10.3001 4.94264 9.29012C3.92864 8.28012 3.92864 6.63611 4.93864 5.62511C5.94864 4.61211 7.59263 4.61212 8.60463 5.62212C9.61463 6.63012 9.61564 8.27513 8.60664 9.28713Z" stroke="white" stroke-miterlimit="10"/>
<path d="M43.498 31.8921C43.719 31.6721 43.722 31.3181 43.498 31.0941L41.843 29.4391C41.619 29.2171 41.265 29.2221 41.045 29.4411L36.471 34.0211L34.9879 32.5391L35.421 32.1071C35.64 31.8861 35.644 31.5301 35.42 31.3071L33.349 29.2391C33.129 29.0191 32.768 29.0191 32.549 29.2401L32.1169 29.6711L16.1089 13.6851C17.9049 10.5191 17.46 6.41509 14.76 3.71908C11.526 0.488085 6.26695 0.492104 3.03595 3.7261C-0.191048 6.9571 -0.192029 12.2191 3.04297 15.4511C5.74997 18.1551 9.87496 18.5911 13.037 16.7681L29.041 32.7491L28.614 33.1781C28.389 33.4021 28.393 33.7571 28.614 33.9761L30.685 36.0451C30.91 36.2691 31.2619 36.2691 31.4839 36.0451L31.913 35.6171L40.846 44.5391C41.065 44.7591 41.426 44.7591 41.646 44.5381L43.9229 42.2601C44.1409 42.0381 44.139 41.6791 43.921 41.4611L42.869 40.4101L47.441 35.8311C47.662 35.6111 47.662 35.2511 47.441 35.0321L45.78 33.3751C45.559 33.1561 45.202 33.1541 44.983 33.3741L43.723 34.6341L42.241 33.1521L43.498 31.8921Z" stroke="white" stroke-miterlimit="10"/>
</svg>

<svg width="49" height="46" viewBox="0 0 49 46" fill="none" xmlns="http://www.w3.org/2000/svg"><path d="M8.607 9.287a2.592 2.592 0 01-3.668-3.662 2.594 2.594 0 013.666-.003 2.596 2.596 0 01.002 3.665z" stroke="#fff" stroke-miterlimit="10"/><path d="M43.498 31.892a.56.56 0 000-.798l-1.655-1.655a.564.564 0 00-.798.002l-4.574 4.58-1.483-1.482.433-.432a.565.565 0 00-.001-.8l-2.071-2.068a.566.566 0 00-.8.001l-.432.431-16.008-15.986c1.796-3.166 1.351-7.27-1.349-9.966C11.526.49 6.267.492 3.036 3.726c-3.227 3.231-3.228 8.493.007 11.725 2.707 2.704 6.832 3.14 9.994 1.317L29.041 32.75l-.427.43a.56.56 0 000 .797l2.071 2.07a.559.559 0 00.799 0l.429-.429 8.933 8.922c.219.22.58.22.8 0l2.277-2.279a.57.57 0 00-.002-.799l-1.052-1.05 4.572-4.58a.564.564 0 000-.799l-1.661-1.657a.565.565 0 00-.797 0l-1.26 1.26-1.482-1.483 1.257-1.26z" stroke="#fff" stroke-miterlimit="10"/></svg>
